X:7230
T:Hornpipe. JC.169
M:C|
L:1/8
Q:180
S:John Clare,Poet,Helpstone (1793-1864)
R:Hornpipe
O:England
A:Northamptonshire
N:
Z:P Headford
K:G
G2GA GABc|dBge dcBA|c2ec BdBG|F2A2A2B2|!
cBcd efge|dBAG GFED|EGFA GBAc|B2G2G2z2:|!
|:dBGB defd|e2c2c2B2|cBcd efge|f2d2d2B2|!
cBcd efge|dBAG GFED|EGFA GBAc|B2G2G2z2:|]
